img/instyle-large-logo.svg

<svg fill="none" height="200" viewBox="0 0 979 200" width="979" xmlns="http://www.w3.org/2000/svg"><g clip-rule="evenodd" fill="#000" fill-rule="evenodd"><path d="m21.4475 199.775h-21.043203v-169.9885l21.043203-29.526734z"/><path d="m892.816 199.926h-24.968v-199.8517812h110.556v4.7372012h-85.588z"/><path d="m901.865 199.926h76.539v-4.252h-76.539z"/><path d="m901.865 102.126h59.531v-4.252h-59.531z"/><path d="m770.048 199.926h63.782v-4.252h-63.782z"/><path d="m753.039 199.926h-21.261v-170.1609l.396-.5489 20.865-29.1419812z"/><path d="m213.013 144.648-4.252-4.747v-.205l.069-139.6217812h4.183z"/><path d="m209.228 162.152v16.472c.006 2.814.003 5.689-.002 8.672l-.008 12.479-4.345-4.901c-23.296-26.271-46.85-50.842-69.63-74.605-21.435-22.3606-43.5339-45.4168-65.4983-69.9556v149.4616h-8.6724v-198.835547l7.8753 8.738887c2.3209 2.57016 4.5146 4.99976 6.6871 7.44566 19.0818 20.4593 34.7363 36.5729 51.3043 53.6313 12.929 13.3087 26.297 27.0683 41.78 43.4217 11.453 12.899 24.676 27.813 37.814 42.702l.883 1.016 1.817 2.094v2.165z"/><path d="m337.693 191.528c-12.313 5.6-24.666 8.399-36.987 8.399-16.767 0-33.483-5.18-49.993-15.526l-.409-.266c-2.74-1.952-2.999-2.21-3.111-2.318l-1.094-1.026 6.918-8.294c3.66 2.5 5.075 2.928 8.844 4.862 1.86.956 3.751 1.928 5.707 3.005 10.841 5.977 21.385 9.126 31.822 9.469h.029c25.692.171 34.69-12.455 36.475-15.482.227-.386.338-.615.351-.644.98-1.872 1.88-4.133 2.902-7.071 4.289-12.331 1.331-23.805-9.04-35.081-7.616-8.277-17.119-14.72-26.308-20.951-1.817-1.231-3.634-2.463-5.437-3.71-2.286-1.576-4.575-3.145-6.87-4.716-9.15-6.2627-18.61-12.737-27.472-19.7086-11.155-8.7749-17.212-19.5169-18.012-31.9322-1.197-18.6408 14.46-35.5922 29.516-43.44921 2.24-1.13056 4.483-2.09729 6.718-2.91645.017-.00697.034-.01394.052-.01743 26.087-9.53132 51.029 1.08408 59.789 5.60399 1.148.5601 2.208 1.1352 3.118 1.7208.026.0163.052.0314.073.0453.01.007.022.014.032.0198.028.0174.047.029.06.0383.004.0024.008.0047.01.0058.007.0047.328.2045.328.2045l-7.166 8.5856s.295.1371-1.865-.8587c-4.737-2.1879-9.209-4.2515-13.932-5.64-15.943-4.68029-30.589-2.5516-43.533 6.3313-6.479 4.4479-10.573 10.6933-11.52 17.5952-.96 6.982 1.336 14.1837 6.472 20.2757 6.258 7.4305 14.258 12.4466 22.723 17.7566 1.402.8773 2.805 1.7592 4.197 2.6492 3.132 2.0008 6.275 3.9843 9.418 5.9688 9.582 6.0479 19.487 12.3002 28.876 18.9837 11.812 8.41 19.735 18.611 23.55 30.328 7.729 23.74-2.646 47.493-25.231 57.76z"/><path d="m519.17.0742188h-114.809v4.8985812c6.424.00234 12.731.00701 19.067.01051 8.638.007 17.295.01284 26.319.014v194.92869h24.034v-195.1948h45.389z"/><path d="m697.761.0742188-59.531 97.7999812v-8.5077l.073-.1153 54.254-89.1769812z"/><path d="m613.425 199.926v-90.592l-55.986-109.2597812h23.284l53.187 103.2817812.068 96.57z"/></g></svg>

<svg width="979" height="200" viewBox="0 0 979 200" fill="none" xmlns="http://www.w3.org/2000/svg">
<path fill-rule="evenodd" clip-rule="evenodd" d="M21.4475 199.775H0.404297V29.7865L21.4475 0.259766V199.775Z" fill="black"/>
<path fill-rule="evenodd" clip-rule="evenodd" d="M892.816 199.926H867.848V0.0742188H978.404V4.81142H892.816V199.926Z" fill="black"/>
<path fill-rule="evenodd" clip-rule="evenodd" d="M901.865 199.926H978.404V195.674H901.865V199.926Z" fill="black"/>
<path fill-rule="evenodd" clip-rule="evenodd" d="M901.865 102.126H961.396V97.874H901.865V102.126Z" fill="black"/>
<path fill-rule="evenodd" clip-rule="evenodd" d="M770.048 199.926H833.83V195.674H770.048V199.926Z" fill="black"/>
<path fill-rule="evenodd" clip-rule="evenodd" d="M753.039 199.926H731.778V29.7651L732.174 29.2162L753.039 0.0742188V199.926Z" fill="black"/>
<path fill-rule="evenodd" clip-rule="evenodd" d="M213.013 144.648L208.761 139.901V139.696L208.83 0.0742188H213.013V144.648Z" fill="black"/>
<path fill-rule="evenodd" clip-rule="evenodd" d="M209.228 162.152V178.624C209.234 181.438 209.231 184.313 209.226 187.296L209.218 199.775L204.873 194.874C181.577 168.603 158.023 144.032 135.243 120.269C113.808 97.9084 91.7091 74.8522 69.7447 50.3134V199.775H61.0723V0.939453L68.9476 9.67834C71.2685 12.2485 73.4622 14.6781 75.6347 17.124C94.7165 37.5833 110.371 53.6969 126.939 70.7553C139.868 84.064 153.236 97.8236 168.719 114.177C180.172 127.076 193.395 141.99 206.533 156.879L207.416 157.895L209.233 159.989V162.154L209.228 162.152Z" fill="black"/>
<path fill-rule="evenodd" clip-rule="evenodd" d="M337.693 191.528C325.38 197.128 313.027 199.927 300.706 199.927C283.939 199.927 267.223 194.747 250.713 184.401L250.304 184.135C247.564 182.183 247.305 181.925 247.193 181.817L246.099 180.791L253.017 172.497C256.677 174.997 258.092 175.425 261.861 177.359C263.721 178.315 265.612 179.287 267.568 180.364C278.409 186.341 288.953 189.49 299.39 189.833H299.419C325.111 190.004 334.109 177.378 335.894 174.351C336.121 173.965 336.232 173.736 336.245 173.707C337.225 171.835 338.125 169.574 339.147 166.636C343.436 154.305 340.478 142.831 330.107 131.555C322.491 123.278 312.988 116.835 303.799 110.604C301.982 109.373 300.165 108.141 298.362 106.894C296.076 105.318 293.787 103.749 291.492 102.178C282.342 95.9153 272.882 89.441 264.02 82.4694C252.865 73.6945 246.808 62.9525 246.008 50.5372C244.811 31.8964 260.468 14.945 275.524 7.08799C277.764 5.95743 280.007 4.9907 282.242 4.17154C282.259 4.16457 282.276 4.1576 282.294 4.15411C308.381 -5.37721 333.323 5.23819 342.083 9.7581C343.231 10.3182 344.291 10.8933 345.201 11.4789C345.227 11.4952 345.253 11.5103 345.274 11.5242C345.284 11.5312 345.296 11.5382 345.306 11.544C345.334 11.5614 345.353 11.573 345.366 11.5823C345.37 11.5847 345.374 11.587 345.376 11.5881C345.383 11.5928 345.704 11.7926 345.704 11.7926L338.538 20.3782C338.538 20.3782 338.833 20.5153 336.673 19.5195C331.936 17.3316 327.464 15.268 322.741 13.8795C306.798 9.19921 292.152 11.3279 279.208 20.2108C272.729 24.6587 268.635 30.9041 267.688 37.806C266.728 44.788 269.024 51.9897 274.16 58.0817C280.418 65.5122 288.418 70.5283 296.883 75.8383C298.285 76.7156 299.688 77.5975 301.08 78.4875C304.212 80.4883 307.355 82.4718 310.498 84.4563C320.08 90.5042 329.985 96.7565 339.374 103.44C351.186 111.85 359.109 122.051 362.924 133.768C370.653 157.508 360.278 181.261 337.693 191.528Z" fill="black"/>
<path fill-rule="evenodd" clip-rule="evenodd" d="M519.17 0.0742188H404.361V4.9728C410.785 4.97514 417.092 4.97981 423.428 4.98331C432.066 4.99031 440.723 4.99615 449.747 4.99731V199.926H473.781V4.7312H519.17V0.0742188Z" fill="black"/>
<path fill-rule="evenodd" clip-rule="evenodd" d="M697.761 0.0742188L638.23 97.8742V89.3665L638.303 89.2512L692.557 0.0742188H697.761Z" fill="black"/>
<path fill-rule="evenodd" clip-rule="evenodd" d="M613.425 199.926V109.334L557.439 0.0742188H580.723L633.91 103.356L633.978 199.926H613.425Z" fill="black"/>
</svg>
